X: 6644
T: Ceanngulla, The
R: slide
M: 12/8
K: Dmajor
|:A3 AFA d3 d2A|def g3 fed B2c|
d2B AFA d3 d2e|1 f2b afd efe dcB:|2 f2b afd efe def||
|:g3 bag|f2g a2f|e2f a2f e2d B2c|
d2B AFA d3 d2e|1 f2b afd efe def:|2 f2b afd efe dcB||

